X: 3901
T: Blackberry Blossom, The
R: reel
M: 4/4
K: Adorian
ea~a2 afge|dBAc BGGA|B2BA Bdge|dBAc BG~G2|
~a3g abge|dBAc BGGA|BdBA B2ge|dBAc BGG2||
|:ea~a2 agba|g2dg gaba|gfgb ~a3b|gaba gedg:|

